dist/img/whatsapp.svg

<svg width="30" height="31" viewBox="0 0 30 31" fill="none" xmlns="http://www.w3.org/2000/svg">
<path fill-rule="evenodd" clip-rule="evenodd" d="M21.8728 18.4128C21.4995 18.2269 19.6645 17.3284 19.3224 17.2043C18.9803 17.0804 18.7315 17.0185 18.4827 17.3902C18.2339 17.762 17.5186 18.5988 17.3009 18.8467C17.0832 19.0946 16.8654 19.1257 16.4923 18.9396C16.119 18.7538 14.9164 18.3616 13.4908 17.096C12.3813 16.1111 11.6322 14.8947 11.4145 14.5228C11.1968 14.151 11.3913 13.95 11.5781 13.7648C11.7461 13.5983 11.9514 13.3309 12.138 13.114C12.3247 12.8972 12.3868 12.7421 12.5112 12.4944C12.6356 12.2464 12.5735 12.0295 12.4801 11.8436C12.3868 11.6577 11.6404 9.82937 11.3294 9.08552C11.0264 8.36133 10.7187 8.45941 10.4896 8.44792C10.2722 8.43719 10.023 8.43492 9.77432 8.43492C9.52553 8.43492 9.12111 8.52787 8.77898 8.89962C8.43691 9.27148 7.47275 10.1702 7.47275 11.9984C7.47275 13.8268 8.8101 15.593 8.99672 15.8409C9.18334 16.0889 11.6285 19.8406 15.3727 21.4496C16.263 21.8323 16.9583 22.0608 17.5003 22.232C18.3944 22.5148 19.208 22.4749 19.8512 22.3792C20.5682 22.2726 22.0593 21.4807 22.3704 20.6131C22.6813 19.7453 22.6813 19.0016 22.5881 18.8467C22.4948 18.6917 22.246 18.5988 21.8728 18.4128M15.0628 27.6668H15.0577C12.8299 27.6659 10.6448 27.0702 8.73867 25.9445L8.28527 25.6767L3.58641 26.9034L4.84061 22.3439L4.54547 21.8764C3.30264 19.9092 2.64621 17.6355 2.64721 15.3008C2.64996 8.48833 8.21947 2.94593 15.0677 2.94593C18.3838 2.94704 21.501 4.23396 23.8451 6.56947C26.1891 8.90492 27.4792 12.0093 27.4779 15.3108C27.4751 22.1238 21.9057 27.6668 15.0628 27.6668M25.6291 4.79482C22.8089 1.98492 19.0585 0.43676 15.0626 0.435127C6.82934 0.435127 0.128496 7.1035 0.125156 15.2999C0.124102 17.92 0.811875 20.4773 2.1191 22.7318L0 30.4351L7.91842 28.3679C10.1002 29.5523 12.5566 30.1765 15.0567 30.1773H15.0628C23.2952 30.1773 29.9966 23.5082 30 15.3118C30.0015 11.3396 28.4492 7.60471 25.6291 4.79482" fill="#F1EDF3"/>
</svg>

<svg width="30" height="31" fill="none" xmlns="http://www.w3.org/2000/svg"><path fill-rule="evenodd" clip-rule="evenodd" d="M21.873 18.413c-.373-.186-2.209-1.085-2.55-1.209-.343-.124-.591-.186-.84.186-.25.372-.964 1.209-1.182 1.457-.218.248-.436.279-.809.093-.373-.186-1.576-.578-3.001-1.844-1.11-.985-1.859-2.201-2.076-2.573-.218-.372-.024-.573.163-.758.168-.167.373-.434.56-.651.187-.217.249-.372.373-.62.125-.248.063-.464-.03-.65-.094-.186-.84-2.015-1.152-2.758-.303-.725-.61-.627-.84-.638-.217-.01-.466-.013-.715-.013-.248 0-.653.093-.995.465-.342.371-1.306 1.27-1.306 3.098 0 1.829 1.337 3.595 1.524 3.843.186.248 2.632 4 6.376 5.609.89.382 1.585.61 2.127.782.894.283 1.708.243 2.351.147.717-.106 2.208-.898 2.52-1.766.31-.868.31-1.611.217-1.766-.093-.155-.342-.248-.715-.434m-6.81 9.254h-.005a12.447 12.447 0 0 1-6.32-1.723l-.453-.267-4.699 1.226 1.255-4.56-.296-.467a12.282 12.282 0 0 1-1.898-6.575C2.65 8.488 8.22 2.946 15.067 2.946a12.36 12.36 0 0 1 8.778 3.623 12.252 12.252 0 0 1 3.633 8.742c-.003 6.813-5.572 12.356-12.415 12.356M25.629 4.795A14.877 14.877 0 0 0 15.063.435C6.829.435.128 7.104.125 15.3a14.785 14.785 0 0 0 1.994 7.432L0 30.435l7.918-2.067a14.98 14.98 0 0 0 7.139 1.81h.006c8.232 0 14.934-6.67 14.937-14.866a14.74 14.74 0 0 0-4.37-10.517" fill="#F1EDF3"/></svg>
